Catalina-dark/actions/22/milestone.svg

<svg xmlns="http://www.w3.org/2000/svg" viewBox="0 0 22 22">
  <defs id="defs3051">
    <style type="text/css" id="current-color-scheme">
      .ColorScheme-Text {
        color:#f2f2f2
      }
      </style>
  </defs>
 <path 
     style="fill:currentColor;fill-opacity:1;stroke:none"      
	 class="ColorScheme-Text"
        d="M 4.0117188 3 C 3.4507598 3 3 3.4507598 3 4.0117188 L 3 17.988281 C 3 18.54924 3.4507598 19 4.0117188 19 L 17.988281 19 C 18.54924 19 19 18.54924 19 17.988281 L 19 4.0117188 C 19 3.4507598 18.54924 3 17.988281 3 L 4.0117188 3 z M 11 6.2304688 C 11.12016 6.2304688 11.218872 6.314245 11.294922 6.4785156 L 12.646484 9.2128906 L 15.664062 9.6503906 C 15.888599 9.6864608 16 9.7794704 16 9.9277344 C 16 10.015881 15.948051 10.11069 15.84375 10.214844 L 13.662109 12.34375 L 14.179688 15.347656 C 14.183744 15.37576 14.185547 15.416673 14.185547 15.46875 C 14.185547 15.552914 14.165018 15.623515 14.123047 15.681641 C 14.081002 15.73984 14.019781 15.769531 13.939453 15.769531 C 13.863477 15.769531 13.783456 15.745359 13.699219 15.697266 L 11 14.277344 L 8.3007812 15.697266 C 8.2126344 15.745433 8.1326873 15.769531 8.0605469 15.769531 C 7.9763831 15.769531 7.9131388 15.739766 7.8710938 15.681641 C 7.8290487 15.623441 7.8085938 15.552914 7.8085938 15.46875 C 7.8085937 15.444777 7.8122723 15.40379 7.8203125 15.347656 L 8.3378906 12.34375 L 6.1503906 10.214844 C 6.0502202 10.106707 6 10.011898 6 9.9277344 C 6 9.7794704 6.1116237 9.6864608 6.3359375 9.6503906 L 9.3535156 9.2128906 L 10.705078 6.4785156 C 10.781202 6.314245 10.87984 6.2304687 11 6.2304688 z "
     />
</svg>

<svg width="22" height="22" viewBox="3 3 16 16" xmlns="http://www.w3.org/2000/svg">
<defs>
<style id="current-color-scheme" type="text/css">.ColorScheme-Text {
        color:#f2f2f2
      }</style>
</defs>
<path class="ColorScheme-Text" d="m4.0117 3c-0.56096 0-1.0117 0.45076-1.0117 1.0117v13.977c0 0.56096 0.45076 1.0117 1.0117 1.0117h13.977c0.56096 0 1.0117-0.45076 1.0117-1.0117v-13.977c0-0.56096-0.45076-1.0117-1.0117-1.0117h-13.977zm6.9883 3.2305c0.12016 0 0.21887 0.083776 0.29492 0.24805l1.3516 2.7344 3.0176 0.4375c0.22454 0.03607 0.33594 0.12908 0.33594 0.27734 0 0.088147-0.051949 0.18296-0.15625 0.28711l-2.1816 2.1289 0.51758 3.0039c0.004056 0.028104 0.005859 0.069017 0.005859 0.12109 0 0.084164-0.020529 0.15476-0.0625 0.21289-0.042045 0.058199-0.10327 0.08789-0.18359 0.08789-0.075976 0-0.156-0.024172-0.24023-0.072265l-2.6992-1.4199-2.6992 1.4199c-0.088147 0.048167-0.16809 0.072265-0.24023 0.072265-0.084164 0-0.14741-0.029765-0.18945-0.08789-0.042045-0.0582-0.0625-0.12873-0.0625-0.21289-1e-7 -0.023973 0.0036785-0.06496 0.011719-0.12109l0.51758-3.0039-2.1875-2.1289c-0.10017-0.10814-0.15039-0.20295-0.15039-0.28711 0-0.14826 0.11162-0.24127 0.33594-0.27734l3.0176-0.4375 1.3516-2.7344c0.076124-0.16427 0.17476-0.24805 0.29492-0.24805z" fill="currentColor"/>
</svg>
